svg/24/logo-github.svg

<svg width="24" height="24" viewBox="0 0 24 24" fill="currentColor" xmlns="http://www.w3.org/2000/svg"><path fill-rule="evenodd" clip-rule="evenodd" d="M12.0083 2C6.47396 2 2 6.50694 2 12.0826C2 16.5396 4.86662 20.3123 8.84338 21.6476C9.34058 21.748 9.5227 21.4306 9.5227 21.1637C9.5227 20.93 9.50631 20.1288 9.50631 19.2939C6.72225 19.895 6.14249 18.092 6.14249 18.092C5.69508 16.9235 5.03215 16.6232 5.03215 16.6232C4.12092 16.0055 5.09852 16.0055 5.09852 16.0055C6.1093 16.0723 6.63969 17.0405 6.63969 17.0405C7.53432 18.5761 8.97592 18.1422 9.55588 17.8751C9.63865 17.224 9.90394 16.7733 10.1856 16.523C7.96514 16.2893 5.62891 15.4213 5.62891 11.5484C5.62891 10.4466 6.02634 9.54523 6.65608 8.8442C6.55672 8.59386 6.20866 7.5587 6.75564 6.17322C6.75564 6.17322 7.60069 5.90608 9.5061 7.20818C10.3219 6.98747 11.1632 6.8752 12.0083 6.87425C12.8533 6.87425 13.7148 6.99123 14.5102 7.20818C16.4159 5.90608 17.2609 6.17322 17.2609 6.17322C17.8079 7.5587 17.4596 8.59386 17.3603 8.8442C18.0066 9.54523 18.3876 10.4466 18.3876 11.5484C18.3876 15.4213 16.0514 16.2725 13.8143 16.523C14.179 16.8401 14.4936 17.441 14.4936 18.3926C14.4936 19.7446 14.4773 20.8298 14.4773 21.1635C14.4773 21.4306 14.6596 21.748 15.1566 21.6478C19.1333 20.3121 22 16.5396 22 12.0826C22.0163 6.50694 17.526 2 12.0083 2Z"/></svg>

<svg xmlns="http://www.w3.org/2000/svg" width="24" height="24" fill="currentColor" viewBox="0 0 24 24">
  <path fill-rule="evenodd" d="M12.008 2C6.474 2 2 6.507 2 12.083c0 4.457 2.867 8.23 6.843 9.565.498.1.68-.217.68-.484 0-.234-.017-1.035-.017-1.87-2.784.601-3.364-1.202-3.364-1.202-.447-1.168-1.11-1.469-1.11-1.469-.911-.617.067-.617.067-.617 1.01.066 1.54 1.035 1.54 1.035.895 1.535 2.337 1.101 2.917.834.083-.651.348-1.102.63-1.352-2.22-.234-4.557-1.102-4.557-4.975 0-1.101.397-2.003 1.027-2.704-.1-.25-.447-1.285.1-2.67 0 0 .845-.268 2.75 1.034a9.623 9.623 0 0 1 2.502-.334 9.62 9.62 0 0 1 2.502.334c1.906-1.302 2.75-1.035 2.75-1.035.548 1.386.2 2.42.1 2.671.647.701 1.028 1.603 1.028 2.704 0 3.873-2.337 4.725-4.574 4.975.365.317.68.918.68 1.87 0 1.352-.017 2.437-.017 2.77 0 .268.183.585.68.485A10.075 10.075 0 0 0 22 12.083C22.016 6.507 17.526 2 12.008 2Z" clip-rule="evenodd"/>
</svg>
